# Welcome to Sonic Pi v2.1.1
use_synth_defaults release: 0.5, amp: 0.7, cutoff: 90
use_synth :pulse
#play_chord [55,59]#b1
#play_pattern_timed [57],[0.5]

play_pattern_timed [:C3,:C3,:E3,:E3],[0.25] #b7
1535 1535 1646 1535