# Welcome to Sonic Pi v2.1.1
use_synth_defaults release: 0.5, amp: 0.7, cutoff: 90
use_synth :pulse
#play_chord [55,59]#b1
#play_pattern_timed [57],[0.5]

play_pattern_timed [:C4,:C4,:E4,:E4,:F4,:F4,:G4],[0.5] #b7
1133445